assets/images/star.svg

<svg width="13" height="12" viewBox="0 0 13 12" fill="none" xmlns="http://www.w3.org/2000/svg">
<path d="M6.18187 0L8.20679 3.71294L12.3638 4.49139L9.45826 7.56456L10.0025 11.7586L6.18187 9.945L2.36127 11.7586L2.90548 7.56456L0 4.49139L4.15695 3.71294L6.18187 0Z" fill="#F5C30E"/>
</svg>

<svg xmlns="http://www.w3.org/2000/svg" width="13" height="12" fill="none"><path fill="#F5C30E" d="m6.182 0 2.025 3.713 4.157.778-2.906 3.074.544 4.194-3.82-1.814-3.82 1.814.543-4.194L0 4.49l4.157-.778z"/></svg>
